static/assets/images/exchanges/pancakeswap.svg

<svg width="254" height="256" viewBox="0 0 254 256" fill="none" xmlns="http://www.w3.org/2000/svg">
<path d="M10.3941 156.8V175.2C10.3941 214.4 62.3648 246.4 126.329 246.4C190.293 246.4 243.063 213.6 243.063 174.4V156.8C243.063 196 191.092 228 127.128 228C63.1643 228 10.3941 196 10.3941 156.8Z" fill="#FEDC90"/>
<path fill-rule="evenodd" clip-rule="evenodd" d="M45.5743 40C41.5765 19.2 57.5675 0 78.3558 0C96.7454 0 111.937 15.2 111.937 33.6V75.2C116.715 74.4 120.754 74.1595 126.383 74.1779C131.7 74.1952 135.016 74.4 139.921 75.2V33.6C139.921 15.2 155.112 0 173.502 0C194.29 0 210.281 19.2 207.083 40L198.288 88.8C229.471 102.4 253.457 126.4 253.457 156V174.4C253.457 199.2 237.466 220 214.279 233.6C191.092 248 160.709 256 126.329 256C91.9481 256 61.5653 248 38.3783 233.6C15.991 220 0 199.2 0 174.4V156C0 126.4 23.1869 102.4 54.3693 88.8L45.5743 40ZM196.689 37.6L186.295 96C220.675 108.8 243.862 130.4 243.063 156.8V174.4C243.063 213.6 190.293 246.4 126.329 246.4C62.3648 246.4 10.3941 214.4 10.3941 175.2V156.8C10.3941 131.2 33.581 108.8 67.1621 96L55.9684 38.4C52.7702 24 63.9639 10.4 78.3558 10.4C91.1486 10.4 101.543 20.8 101.543 33.6V86.4C109.538 85.6 117.534 84.8 126.329 84.8C134.324 84.8 142.32 85.6 150.315 86.4V32.8C150.315 20 160.709 9.6 173.502 9.6C187.575 9.6 199.589 22.0809 196.689 37.6Z" fill="#633001"/>
<path d="M183.097 151.2C183.097 161.6 177.5 170.4 170.304 170.4C163.108 170.4 157.511 161.6 157.511 151.2C157.511 140.8 163.108 132 170.304 132C177.5 132 183.097 140.8 183.097 151.2Z" fill="#633001"/>
<path fill-rule="evenodd" clip-rule="evenodd" d="M127.128 228C63.1643 228 10.3941 196 10.3941 156.8C10.3941 131.2 33.581 108.8 67.1621 96L55.9684 38.4C52.7702 24 63.9639 10.4 78.3558 10.4C91.1486 10.4 101.543 20.8 101.543 33.6V86.4C109.538 85.6 117.534 84.8 126.329 84.8C134.324 84.8 142.32 85.6 150.315 86.4V32.8C150.315 20 160.709 9.6 173.502 9.6C187.575 9.6 199.589 22.0809 196.689 37.6L186.295 96C220.675 108.8 243.862 130.4 243.063 156.8C243.063 196 191.092 228 127.128 228ZM183.097 151.2C183.097 161.6 177.5 170.4 170.304 170.4C163.108 170.4 157.511 161.6 157.511 151.2C157.511 140.8 163.108 132 170.304 132C177.5 132 183.097 140.8 183.097 151.2ZM81.554 170.4C88.7499 170.4 94.3468 161.6 94.3468 151.2C94.3468 140.8 88.7499 132 81.554 132C74.358 132 68.7612 140.8 68.7612 151.2C68.7612 161.6 74.358 170.4 81.554 170.4Z" fill="#D2884F"/>
<path d="M94.3468 151.2C94.3468 161.6 88.7499 170.4 81.554 170.4C74.358 170.4 68.7612 161.6 68.7612 151.2C68.7612 140.8 74.358 132 81.554 132C88.7499 132 94.3468 140.8 94.3468 151.2Z" fill="#633001"/>
</svg>

<svg xmlns="http://www.w3.org/2000/svg" fill="none" viewBox="0 0 254 256"><path fill="#FEDC90" d="M10.394 156.8v18.4c0 39.2 51.97 71.2 115.935 71.2 63.964 0 116.734-32.8 116.734-72v-17.6c0 39.2-51.971 71.2-115.935 71.2S10.394 196 10.394 156.8"/><path fill="#633001" fill-rule="evenodd" d="M45.574 40C41.577 19.2 57.568 0 78.356 0c18.39 0 33.581 15.2 33.581 33.6v41.6c4.778-.8 8.817-1.04 14.446-1.022 5.317.017 8.633.222 13.538 1.022V33.6c0-18.4 15.191-33.6 33.581-33.6 20.788 0 36.779 19.2 33.581 40l-8.795 48.8c31.183 13.6 55.169 37.6 55.169 67.2v18.4c0 24.8-15.991 45.6-39.178 59.2-23.187 14.4-53.57 22.4-87.95 22.4s-64.764-8-87.95-22.4C15.99 220 0 199.2 0 174.4V156c0-29.6 23.187-53.6 54.37-67.2zm151.115-2.4L186.295 96c34.38 12.8 57.567 34.4 56.768 60.8v17.6c0 39.2-52.77 72-116.734 72s-115.935-32-115.935-71.2v-18.4c0-25.6 23.187-48 56.768-60.8L55.968 38.4c-3.198-14.4 7.996-28 22.388-28 12.793 0 23.187 10.4 23.187 23.2v52.8c7.995-.8 15.991-1.6 24.786-1.6 7.995 0 15.991.8 23.986 1.6V32.8c0-12.8 10.394-23.2 23.187-23.2 14.073 0 26.087 12.48 23.187 28" clip-rule="evenodd"/><path fill="#633001" d="M183.097 151.2c0 10.4-5.597 19.2-12.793 19.2s-12.793-8.8-12.793-19.2 5.597-19.2 12.793-19.2 12.793 8.8 12.793 19.2"/><path fill="#D2884F" fill-rule="evenodd" d="M127.128 228c-63.964 0-116.734-32-116.734-71.2 0-25.6 23.187-48 56.768-60.8L55.968 38.4c-3.198-14.4 7.996-28 22.388-28 12.793 0 23.187 10.4 23.187 23.2v52.8c7.995-.8 15.991-1.6 24.786-1.6 7.995 0 15.991.8 23.986 1.6V32.8c0-12.8 10.394-23.2 23.187-23.2 14.073 0 26.087 12.48 23.187 28L186.295 96c34.38 12.8 57.567 34.4 56.768 60.8 0 39.2-51.971 71.2-115.935 71.2m55.969-76.8c0 10.4-5.597 19.2-12.793 19.2s-12.793-8.8-12.793-19.2 5.597-19.2 12.793-19.2 12.793 8.8 12.793 19.2M81.554 170.4c7.196 0 12.793-8.8 12.793-19.2S88.75 132 81.554 132s-12.793 8.8-12.793 19.2 5.597 19.2 12.793 19.2" clip-rule="evenodd"/><path fill="#633001" d="M94.347 151.2c0 10.4-5.597 19.2-12.793 19.2s-12.793-8.8-12.793-19.2S74.358 132 81.554 132s12.793 8.8 12.793 19.2"/></svg>
